X: 3
T: Ruffs and Rhees   (G)
O: 1779
R: jig
S: Image from Darlene Wigton, June 2017
Z: 2017 John Chambers <jc:trillian.mit.edu>
M: 6/8
L: 1/8
K: G
% - - - - - - - - - - - - - - - - - - - - - - - - - - - - -
|:\
"G"G2d "(Em)"BGB | "Am"cAG "D7"F2D |\
"G"G2d "(Em)"BGB | "D7"FDF "G"G3 :|
|:\
"G"B2c "(D7)"def | "G"gdc B2G |\
"G"B2c "(D7)"def | "G"gdB "D7"A3 :|
|:\
"G"d2B "C"(c/d/e)c | "Am"cAc "G"d2B |\
"G(Em)"B2G "C(Am)"(A/B/c)A | "D7"FDF "G"G3 :| [g2D2]
% - - - - - - - - - - - - - - - - - - - - - - - - - - - - -

%%sep 1 1 500

